X:1
T:Title
%%score { 1 | 2 }
L:1/8
M:3/4
K:C
V:1 treble nm="Grand Piano"
V:2 bass 
V:1
 z2 z2[Q:1/4=112] [CE]>[DF] | [EG]2 [_E^F]2 [=EG]2 | [Ec]4 [EB]>[Ec] | d2 c2 A2 | [EG]4 [EA]>[EG] | %5
 F2 E2 F2 | F2 G2 A2 | [FA]2 [EG]2 [DF]2 | [CE]4 [CE]>[DF] | [EG]2 [_E^F]2 [=EG]2 | %10
 [Ec]4 [EB]>[Ec] | d2 c2 A2 |[M:2/4] c4 |[M:1/4] B>A |[M:3/4] G c3 G2 | G d3 G2 | [Ec]6- | %17
[M:2/4] [Ec]4 |[M:1/4] [Ec]>[Ed] |[M:3/4] [Fc]2 [FB]2 [FA]2 | D F3 c2 | B6- | B4 A>B | %23
 [FA]2 [EG]2 E2 | C E3 [FA]2 | [EG]6- | [EG]4 [CE]>[DF] | [EG]2 [_E^F]2 [=EG]2 | [Ec]4 [EG]>[EG] | %29
 A2 F2 A2 | d4 B>A | G c3 G2 | G d3 G2 | [Ec]6- |[M:2/4] [Ec]4 |] %35
V:2
 z2 z2 [C,G,]>[C,G,] | [C,C]2 [C,C]2 [C,C]2 | [C,G,]4 [C,G,]>[C,G,] | [F,A,F]2 [F,A,F]2 [F,CF]2 | %4
 [C,C]4 [C,C]>[C,C] | [G,B,D]2 [G,_B,^C]2 [G,=B,D]2 | [G,B,D]2 [G,B,E]2 [G,B,F]2 | %7
 [G,,G,]2 [A,,G,]2 [B,,G,]2 | [C,G,]4 [C,G,]>[C,G,] | [C,C]2 [C,C]2 [C,C]2 | %10
 [C,G,]4 [C,G,]>[C,G,] | [F,A,F]2 [F,A,F]2 [F,CF]2 |[M:2/4] [F,A,F]4 |[M:1/4] [F,B,G]>[F,CF] | %14
[M:3/4] [G,CE] [G,CE]3 [G,CE]2 | [G,B,F] [G,B,F]3 [G,B,F]2 | [C,G,]6- |[M:2/4] [C,G,]4 | %18
[M:1/4] [C,G,]>[C,G,] |[M:3/4] [D,G,]2 [D,G,]2 [D,G,]2 | [G,B,][K:treble] [G,B,D]3 [G,B,F]2 | %21
 [G,DF]6- | [G,DF]4 [G,B,F]>[G,B,F] | [C,C]2 [C,C]2 [C,G,C]2 | [C,E,] [C,G,C]3 [C,C]2 | [C,C]6- | %26
 [C,C]4 [C,G,]>[C,G,] | [C,C]2 [C,C]2 [C,C]2 | [C,G,]4 [C,C]>[C,C] | %29
 [F,CF]2 [F,A,C]2[K:treble] [F,CF]2 | [F,A,F]4 [F,CG]>[F,CF] | [G,CE] [G,CE]3 [G,CE]2 | %32
 [G,B,F] [G,B,F]3 [G,B,F]2 | [C,G,]6- |[M:2/4] [C,G,]4 |] %35

